X:1
T:Title
%%score 1 2
L:1/8
Q:1/4=84
M:4/4
K:Ab
V:1 treble nm="Grand Piano, Soprano"
V:2 bass nm="Choir Pad, Los Padres, Ira D. Sankey"
V:1
 [CE][CE] [CA]>[CA] [CA][CA][EA][EG] | [EA][EB][Ec][Ec] [Ec]>[DB] [CA]2 | %2
w: By~Ira~David~Sankey,~1902 * * * * * * *||
 [EA][EB] [Ec]>[Ec] [Ec][Ec][Ed][Ec] | [EB][EB][EB][EB] [=DB]>[Dc] [EB]2 | %4
w: ||
 [Ec][DB] [CA]>[DA] [EA][EG][FB][FA] | [EG][DF][CE][CE] [EA]>[EB] [Ec]2 | %6
w: ||
 [Ec]>[Ec] [Dd]>[Dd] [Ec][EB][Ee][Ec] | [CA][Fd] [Ec]>[EB] [EA][DG] [CA]2 | %8
w: ||
 [Ec][Ed] [Ae]>[Ae] [Ae][Ae][Ae][Ec] | [Ed][Ee][Ee][Ed] [Ed]>[Ec] [Ed]2 | %10
w: ||
 [EB][Ec] [Ed]>[Ed] [Ec][EB][Ec][Ae] | [EA][Fd] [Ec]>[EB] [EA][DG] [CA]2- | [CA]6 z2 |] %13
w: |||
V:2
 [A,,A,][A,,A,] [A,,E,]>[A,,E,] [A,,E,][A,,E,][C,A,][D,B,] | %1
 [C,A,][E,G,]A,A, [E,A,]>[E,G,] [A,,A,]2 | [C,A,][E,G,] A,>A, A,A,[G,B,]A, | %3
 [C,A,][C,A,][E,G,][E,G,] [B,,F,]>[B,,A,] [E,G,]2 | %4
 [E,G,][E,G,] [A,,A,]>[B,,A,] [C,A,][C,A,][D,A,][D,A,] | %5
 [D,A,][D,A,][A,,A,][A,,A,] [C,A,]>[E,G,] A,2 | %6
 A,>[_G,A,] [F,A,]>[F,A,] [E,A,][D,=G,][C,A,][A,,A,] | %7
 [F,A,][D,A,] [E,A,]>[E,D] [E,C][E,B,] [A,,A,]2 | A,[A,B,] [A,C]>[A,C] [E,B,][E,B,][A,C]A, | %9
 [A,B,][A,C][E,C][E,B,] [E,B,]>[E,A,] [E,B,]2 | [E,G,][E,A,] [E,B,]>[E,B,] [E,A,]A,A,[A,C] | %11
 [C,A,][D,A,] [E,A,]>[E,D] [E,C][E,B,] [A,,A,]2- | [A,,A,]6 z2 |] %13

